!!!COM: Robert Franz
!!!CNT: Deutscher
!!!TXO: Deutsche 
!!!OTL: "Ich Lieb' eine Blume"
!!!OPS: Op. 28
!!!ONM: No. 1
!!!ONB: Original key: Db Major
!!!LYR: H. Heine
!!!ENC: Brian Bice
!!!YOR: Vocal Album, G. Schirmer, Inc., 1907
!!!ODT: 1870/
!!NB: Vocal melody and text only encoded.
**kern	**silbe
*clefG2	*
*k[b-e-]	*
*M6/8	*
=0	=0
4.r	.
4r	.
{8f	{Ich
=1	=1
8d	lieb'
8e-	ei-
8f	-ne
8g	Blu-
8f	-me,
8e-	doch
=2	=2
8f	weiss
8g	ich
8a	nicht,
(8b-	wel-
8a)	|
8g	-che,
=3	=3
4.f	das
4e-	macht
8g	mir
=4	=4
[4.cc	Schmerz
4cc]}	|}
{8f	{Ich
=5	=5
(8dd	schau'
8cc)	|
8b-	in
4a	al-
8cc	-le
=6	=6
(8ee-	Blu-
8d)	|
8cc	-men-
8b-	-kel-
8cc	-che,
8dd	und
=7	=7
4.g	such'
4.f	ein
=8	=8
[4.en	Herz.
4en]}	|}
8r	.
=9	=9
4r	.
8r	.
4r	.
{8f	{Es
=10	=10
8d	duf-
8e-	-ten
8f	die
8g	Blu-
8f	-men
8e-	im
=11	=11
(8f	A-
8g)	|
8a	-bend-
8b-	-schei-
8a	-ne,
8g	die
=12	=12
4.f	Nacht-
4e-	-ti-
8g	-gall
=13	=13
[4.cc	schla2gt.
4cc]}	|}
{8f	{Ich
=14	=14
(8dd	such'
8cc)	|
8b-	ein
4a	Herz,
8b-	so
=15	=15
8ee-	scho2n
8dd	wie
8cc	das
8b-	mei-
8cc	-ne,
8dd	so
=16	=16
4.g	scho2n
4.f	be-
=17	=17
[4.en	-wegt.
4en]}	|}
8r	.
=18	=18
4r	.
8r	.
4r	.
{8f	{Die
=19	=19
8d	Nach-
8e-	-ti-
8f	-gall
4g	schla2gt,
8a	und
=20	=20
(8b-	ich
8a-)	|
8g	ver-
8f	-ste-
8e-	-he
8d	den
=21	=21
4.b-	su2-
4a	-ssen
8b-	Ge-
=22	=22
[4.cc	-sang;
4cc]}	|}
{8f	{uns
=23	=23
(8dd	bei-
8cc)	|
8b-	-den
4a	ist,
8cc	so
=24	=24
(8ee-	bang
8dd)	|
8cc	und
8b-	we-
8cc	-he,
8dd	so
=25	=25
(4cc	weh
8b-)	|
(4a	und
8b-)	|
=26	=26
[4.cc	bang,
4cc]}	|}
{8e	{so
=27	=27
4.g-	weh
(4f	und
8e-)	|
=28	=28
[4.d	bang!
4d]}	|}
*-	*-
